X:1
T:Title
%%score { ( 1 3 ) | ( 2 4 5 ) }
L:1/8
Q:1/4=100
M:4/4
K:Bb
V:1 treble nm="Grand Piano"
V:3 treble 
V:2 bass 
V:4 bass 
V:5 bass 
V:1
 [DB]>[DA] [DB]>[Dc] [EB]2 [EA]2 | G>^F G>A [DG]2 [D=F]2 | d>_d =d>e [=Ed]>[E_d] [EG]2 | %3
w: Adam~Geibel * * * * *|||
 c>=B c>d [Ec]>[D_B] [DF]2 | [DB]>[DA] [DB]>[Dc] [EB]2 [EA]2 | G>^F G>A [DG]2 [D=F]2 | %6
w: |||
 B>A B>G [Fc]>[Fd] [Fc]>[CFA] | [B,=EG]2 [CEA]2 [A,F]4 | z2 d4 z2 | z2 d4 z2 | %10
w: ||||
 [B,DB]2 [B,FB]2 [B,FA]2 [B,EG]2 | [DF]4 z4 | z2 e4 z2 | z2 e4 z2 | [=Ec]2 [Ed]2 [Ec]2 [EB]2 | %15
w: |||||
 [CFA]4 z4 | z2 d4 z2 | z2 d4 z2 | B2 B2 c2 d2 | e8 | B2 B4 c2 | d2 F2 =E2 F2 | %22
w: |||||||
 [B,=EG]2 [EB]2 [Fd]3 [_Ec] | [DB]6 z2 |] %24
w: ||
V:2
 [B,,F,]>[B,,F,] [B,,F,]>[B,,F,] [C,F,]2 [C,F,]2 | %1
 [F,A,E]>[F,A,E] [F,A,E]>[F,E] [B,,F,]2 [B,,B,]2 | %2
 [G,=B,F]>[G,B,F] [G,B,F]>[G,B,F][K:bass] [C,_B,]>[C,B,] [C,B,]2 | %3
 [F,A,E]>[F,A,E] [F,A,E]>[F,A,E] [B,,F,]>[B,,F,] [B,,B,]2 | %4
 [B,,F,]>[B,,F,] [B,,F,]>[B,,F,] [C,F,]2 [C,F,]2 | %5
 [F,A,E]>[F,A,E] [F,A,E]>[F,E] [B,,F,]2 [B,,B,]2 | %6
 [G,B,D]>[G,B,D] [G,B,D]>[G,B,D] [C,A,]>[C,A,] [C,A,]>C, | C,2 C,2 F,4 | z2 F4 z2 | %9
 z2 F4[K:bass] z2 | B,,2 D,2 E,2 G,2 | B,4 z4 | z2 G4 z2 | E2 G4 z2 | [C,C]2 [C,C]2 [C,C]2 [C,C]2 | %15
 F,4 z4 | z2 F4 z2 | z2 F4[K:bass] z2 | [B,D]2 [B,DF]2 [A,CF]2 [_A,B,F]2 | E2- [G,E-]2 [G,E]4 | %20
 [^F,B,=E]2 [F,B,E]4 [F,B,E]2 | [F,B,F]2 F,2 =E,2 F,2 | C,2 [C,G,]2 [F,A,]3 [F,A,] | [B,,B,]6 z2 |] %24
V:3
 x8 | x8 | x8 | x8 | x8 | x8 | x8 | x8 | [DB]2 z2 A,2 c2 | B2 z2 A,2 c2 | x8 | x8 | %12
 [Ec]2 z2 =B,2 d2 | c2 z2 =B,2 d2 | x8 | x8 | [DB]2 z2 A,2 c2 | B2 z2 A,2 c2 | x8 | z2 B,2 B,4 | %20
 x8 | x8 | x8 | x8 |] %24
V:4
 x8 | x8 | x4[K:bass] x4 | x8 | x8 | x8 | x8 | x8 | B,4 z4 | D2 z2[K:bass] F,2 [F,A,E]2 | x8 | %11
 z2 F,2 D,2 B,,2 | C4 z4 | C4 G,2 [G,=B,F]2 | x8 | z2 z G, F,E,D,C, | B,4 z4 | %17
 D2 z2[K:bass] F,2 [F,A,E]2 | x8 | [G,B,]2 z2 z4 | x8 | x8 | x8 | x8 |] %24
V:5
 x8 | x8 | x4[K:bass] x4 | x8 | x8 | x8 | x8 | x8 | z4 F,2 [F,A,E]2 | B,4[K:bass] z4 | x8 | x8 | %12
 z4 G,2 [G,=B,F]2 | x8 | x8 | x8 | z4 F,2 [F,A,E]2 | B,4[K:bass] z4 | x8 | x8 | x8 | x8 | x8 | %23
 x8 |] %24

